packages/foundations/assets/icons/functional/images/transportation/bike_trailer_14_inverted.svg

<svg width="14" height="14" viewBox="0 0 14 14" fill="none" xmlns="http://www.w3.org/2000/svg">
<g clip-path="url(#clip0_2214_6664)">
<path fill-rule="evenodd" clip-rule="evenodd" d="M4.49018 8.43774C5.07007 8.43774 5.54017 8.90784 5.54017 9.48774C5.54017 10.0676 5.07007 10.5377 4.49018 10.5377C3.91028 10.5377 3.44018 10.0676 3.44018 9.48774C3.44018 8.90784 3.91028 8.43774 4.49018 8.43774ZM4.308 3.49204C4.49018 3.51569 5.40419 3.7494 6.52967 4.24292C7.79298 4.9465 8.77717 5.68464 9.48152 6.46371C9.64721 6.64697 9.68241 6.91355 9.56997 7.13353L8.7226 8.8229C8.62163 9.02043 8.41917 9.14539 8.19733 9.14709C7.27762 9.15067 6.72296 9.15067 6.53337 9.14709C6.46025 8.17728 5.48225 7.38774 4.49018 7.38774C3.66513 7.38774 2.95121 7.86353 2.60782 8.55569L2.15168 8.50396C1.88318 8.47354 1.66889 8.26601 1.62989 7.99862C1.5162 7.17663 1.45935 6.69432 1.45935 6.55169C1.45935 6.40906 1.5588 5.96455 1.75768 5.21816C2.01719 4.05109 3.14272 3.3005 4.308 3.49204ZM12.523 8.01149C12.5982 8.30535 12.4276 8.66238 12.0941 8.73541L10.5877 9.12086C10.2693 9.20232 9.9452 9.01028 9.86375 8.69192C9.78855 8.39806 9.95063 8.06098 10.2927 7.968L11.7991 7.58255C12.1174 7.50109 12.4415 7.69313 12.523 8.01149ZM2.90415 4.67952L2.52308 5.79803C2.41831 6.10949 2.58586 6.44691 2.89732 6.55169C3.18482 6.6484 3.49444 6.51308 3.62278 6.24671L3.83743 5.62374C4.54794 5.76012 5.10129 5.94362 5.49749 6.17423L6.63454 6.8482C6.91646 7.01704 7.28187 6.92536 7.45071 6.64344C7.60547 6.38502 7.54134 6.05644 7.31242 5.87342L6.32189 5.27388C5.7907 4.95577 5.21526 4.71934 4.6149 4.57207L3.55715 4.35434C3.28793 4.30039 3.02043 4.43761 2.90415 4.67952Z" fill="#1A1C1F"/>
</g>
<defs>
<clipPath id="clip0_2214_6664">
<rect width="14" height="14" fill="white"/>
</clipPath>
</defs>
</svg>

<svg xmlns="http://www.w3.org/2000/svg" width="14" height="14" fill="none"><g clip-path="url(#a)"><path fill="#1A1C1F" fill-rule="evenodd" d="M4.49 8.438a1.05 1.05 0 1 1 0 2.1 1.05 1.05 0 0 1 0-2.1m-.182-4.946c.182.024 1.096.257 2.222.75 1.263.705 2.247 1.443 2.952 2.222.165.183.2.45.088.67l-.847 1.689a.6.6 0 0 1-.526.324q-1.38.006-1.664 0c-.073-.97-1.05-1.76-2.043-1.76a2.1 2.1 0 0 0-1.882 1.169l-.456-.052a.595.595 0 0 1-.522-.505q-.17-1.233-.17-1.447t.298-1.334a2.24 2.24 0 0 1 2.55-1.726m8.215 4.52c.075.293-.095.65-.429.723l-1.506.386a.595.595 0 1 1-.295-1.153l1.506-.385a.595.595 0 0 1 .724.428M2.904 4.68l-.38 1.118a.595.595 0 0 0 1.099.449l.214-.623q1.065.205 1.66.55l1.138.674a.595.595 0 0 0 .677-.975l-.99-.6a6.2 6.2 0 0 0-1.707-.7l-1.058-.219a.595.595 0 0 0-.653.326" clip-rule="evenodd"/></g><defs><clipPath id="a"><path fill="#fff" d="M0 0h14v14H0z"/></clipPath></defs></svg>
